Papirus/48x48/apps/forza-horizon-5.svg

<svg width="48" height="48" version="1.1" xmlns="http://www.w3.org/2000/svg">
 <rect x="4" y="5" width="40" height="40" ry="6" style="opacity:.2"/>
 <rect x="4" y="4" width="40" height="40" ry="6" style="fill:#e3536d"/>
 <path d="m22.998427 17c-4.193248 0-5.332404 2.485444-7 5h20c2.889776 0 5.38376-2.26627 6-5zm-16 6 14.332031 2.802734-2.332031 4.197266 4-1 4-6h-3zm21 0-4 6 4-1 3-5zm4 0-3 5 2.5-0.5c1.288324-0.257665 1.798372-1.26379 2.5-1.904297l2-2.595703zm-18 2.5-5.9999998 9.5 8.9999998-3 2.802734-5.605469z" style="opacity:.2"/>
 <path d="m22.998427 16c-4.193248 0-5.332404 2.485444-7 5h20c2.889776 0 5.38376-2.26627 6-5zm-16 6 14.332031 2.802734-2.332031 4.197266 4-1 4-6h-3zm21 0-4 6 4-1 3-5zm4 0-3 5 2.5-0.5c1.288324-0.257665 1.798372-1.26379 2.5-1.904297l2-2.595703zm-18 2.5-5.9999998 9.5 8.9999998-3 2.802734-5.605469z" style="fill:#2f2f2f"/>
 <path d="m10 4c-3.3239966 0-6 2.6760034-6 6v1c0-3.3239966 2.6760034-6 6-6h28c3.323996 0 6 2.6760034 6 6v-1c0-3.3239966-2.676004-6-6-6z" style="fill:#ffffff;opacity:.1"/>
</svg>

<svg xmlns="http://www.w3.org/2000/svg" width="48" height="48" version="1.1">
 <rect style="opacity:0.2" width="40" height="40" x="4" y="5" ry="6"/>
 <rect style="fill:#e3536d" width="40" height="40" x="4" y="4" ry="6"/>
 <path style="fill:#ffffff;opacity:0.1" d="m10 4c-3.3239966 0-6 2.6760034-6 6v1c0-3.3239966 2.6760034-6 6-6h28c3.323996 0 6 2.6760034 6 6v-1c0-3.3239966-2.676004-6-6-6z"/>
 <path style="opacity:0.2" d="M 23,17 C 18.807,17 17.668,19.485 16,22 H 36 C 38.89,22 41.384,19.734 42,17 Z M 7,23 21.332,25.803 19,30 23,29 27,23 H 24 Z M 28,23 24,29 28,28 31,23 Z M 32,23 29,28 31.5,27.5 C 32.788,27.242 33.298,26.236 34,25.596 L 36,23 Z M 14,25.5 8,35 17,32 19.803,26.395 Z"/>
 <path style="fill:#2f2f2f" d="M 23,16 C 18.807,16 17.668,18.485 16,21 H 36 C 38.89,21 41.384,18.734 42,16 Z M 7,22 21.332,24.803 19,29 23,28 27,22 Z M 28,22 24,28 28,27 31,22 Z M 32,22 29,27 31.5,26.5 C 32.788,26.242 33.298,25.236 34,24.596 L 36,22 Z M 14,24.5 8,34 17,31 19.803,25.395 Z"/>
</svg>
